X:1
T:Title
%%score ( 1 2 ) { ( 3 5 ) | 4 }
L:1/8
Q:1/4=100
M:6/4
K:Eb
V:1 treble nm="Grand Piano, Piano"
V:2 treble 
V:3 bass nm="Grand Piano, Piano"
V:5 bass 
V:4 bass 
V:1
 [EG]2 [E_G]2 [E=G]2 [DA]4 [B,D]2 | [B,E]12 | [EG]2 [EG]2 [EG]2 [GB]2 [FA]2 [EG]2 | %3
w: 1.~God,~ give~ us~ Chris tian~|homes!~|Homes~ where~ the~ Bi ble~ is~|
 F4 [=EG]2 [FA]6 | [DA]2 [DA]2 [DA]2 [Dc]2 [EB]2 [FA]2 | [EG]4 [FA]2 [GB]6 | %6
w: loved~ and~ taught,~|Homes~ where~ the~ Mas * ter's~|will~ is~ sought,~|
 [Ac]2 [Ac]2 [Ac]2 [Ae]2 [Ad]2 [Ac]2 | [GB]4 [FG]2 [=Ec]6 |[M:3/4] F2 [=EG]2 [FA]2 | [EG]4 [DF]2 | %10
w: Homes~ crowned~ with~ beau ty~ Your~|love~ has~ wrought;~|God,~ give~ us~|Chris tian~|
[M:6/4] B12 | z6 .G6 | [B,E]12 |] %13
w: homes;~|Chris|homes!~|
V:2
 x12 | x12 | x12 | x12 | x12 | x12 | x12 | x12 |[M:3/4] x6 | x6 |[M:6/4] E6 D6 | %11
w: |||||||||||
 [EG]2 E2 [EA]2 E2 D2 [B,F]2 | x12 |] %13
w: * give~ us~ * * tian~||
V:3
 B,2 =A,2 B,2 B,4 _A,2 | G,12 | B,2 B,2 B,2 B,2 B,2 B,2 | C4 C2 C6 | %4
 B,2 B,2[K:bass] B,2 A,2 G,2 B,2 | B,4 B,2[K:treble] E6 | E2 E2 E2 C2 D2 E2 | E2 B,2 =B,2 C6 | %8
[M:3/4] C2 C2 C2 | B,4 B,2 |[M:6/4] B,12 | B,2 B,2 C2 B,4 A,2 | G,12 |] %13
V:4
 E,2 E,2 E,2 B,,4 B,,2 | E,12 | E,2 E,2 E,2 E,2 D,2 E,2 | A,4 G,2 F,6 | %4
 B,,2 B,,2 B,,2 B,,2 B,,2 B,,2 | E,4 E,2 E,6 | A,2 A,2 A,2 A,2 A,2 A,2 | E,4 D,2 C,6 | %8
[M:3/4] A,2 G,2 F,2 | z2 z2 A,2 |[M:6/4] G,6 z6 | E,2 G,,2 A,,2 B,,4 B,,2 | E,12 |] %13
V:5
 x12 | x12 | x12 | x12 | x4[K:bass] x8 | x6[K:treble] x6 | x12 | x12 |[M:3/4] x6 | x6 | %10
[M:6/4] z6 F,6 | x12 | x12 |] %13

